X: 657
T: Esir Ettin Beni
C: Rahmi Bey
O: Turkey
F: http://compmusic.upf.edu/node/140
N: mahur--sarki--kapali_curcuna--esir_ettin--rahmi_bey
N: makam= mahur
N: form= sarki
N: usul= kapali_curcuna = 10/8
M: 10/8
L: 1/16
K: C ^9/8f   
Q: 1/4=200
%%MIDI tuningsystem comma53
g4 f2e2 d2d2 c2B2 A2G2  | d2e2 f2g2 a2f2 a2g4z2  | \
w:  ARANAĞME  |   | 
g2f2 a2g2 f2f2 e2g2 f2e2  | 
w:   | 
d18z2  | c2d2 e2c2 e2d2 c2d4z2  | B2A2 c2B2 c2A8-A2  | \
w:   |   |   | 
A2B2 c2B2 A2G2 F2E4F2  | 
w:   | 
G16-G4  | g4 f2e2 d2d2 c2B2 A2G2  | d2e2 f2g2 a2f2 a2g4z2  | \
w:   |  ARANAĞME  |   | 
g2f2 a2g2 f2f2 e2g2 f2e2  | 
w:   | 
d18z2  | c2d2 e2c2 e2d2 c2d4z2  | B2A2 c2B2 c2A8-A2  | \
w:   |   |   | 
A2B2 c2B2 A2G2 F2E4F2  | 
w:   | 
G16-G4  | z4 d2g4g2 f2e4f2  | g8-g2g2 f2g6  | \
w:   |  E sîr  et  |  tin   | 
z4 g2a4a2 g2a4g2  | 
w:  be ni  ey   | 
f2e2 f2g2 a2f2 e2d4z2  | z4 d2g4a4b2 a2g2  | \
w:  dil   |  pe sen   | 
a4 b2c'4d'2 c'2b2 a2g2  | 
w:   | 
a4 c'2b2 a2g2 f2e4f2  | g8 d2e2 f2g4z2  | \
w:  pe sen  |  dim   SAZ  | 
z4 d2g4g2 f2e4f2  | 
w:  Se nin  zen  | 
g4 _b2a2 g2=f2 e2d6  | d4 d2e4e2 a2e4d2  | \
w:  cîr_  |  *  i  zül fün  | 
d4 _7/8e2d2 c2c2 _1/4B2c4z2  | 
w:  dür   | 
z4 _1/4B2c4c8B2  | d8-d2d2 ^c2_7/8B2 A2G2  | \
w:  ke men dim   |   | 
A4 c2B2 A2G2 F2E4F2  | G8 d2e2 f2g4z2  | 
w:  ke men  |  dim   SAZ  | 
z4 d2g4g2 f2e4f2  | g4 _b2a2 g2=f2 e2d6  | \
w:  Se nin  zen  |  cîr_  | 
d4 d2e4e2 a2e4d2  | 
w:  *  i  zül fün  | 
d4 _7/8e2d2 c2c2 _1/4B2c4z2  | z4 _1/4B2c4c8B2  | \
w:  dür   |  ke men dim   | 
d8-d2d2 ^c2_7/8B2 A2G2  | A4 c2B2 A2G2 F2E4F2  | 
w:   |  ke men  | 
G8-G2^c4d4z2  | z4 ^c2d4_7/8e2 ^f2e4d2  | \
w:  dim   SAZ  |  E şin  yok  | 
d14^c4z2  | d4 _7/8e2d2 g2^f2 e2e4d2  | 
w:  tur   |  gü zel *  *  sin   | 
d2^c2 _7/8e2d2 c2_7/8B2 A2G4z2  | \
w:  bî   | 
G4 A2B4c4d4e2  | f4 g2a2 g2f2 e2d6  | 
w:  bî  |   | 
e6f4g4b2 a2g2  | g8 d2e2 f2g4z2  | z4 d2g4g2 f2e4f2  | \
w:  me nend  |  sin   SAZ  |  Se nin  zen  | 
g4 _b2a2 g2=f2 e2d6  | 
w:  cîr_  | 
d4 d2e4e2 a2e4d2  | d4 _7/8e2d2 c2c2 _1/4B2c4z2  | \
w:  *  i  zül fün  |  dür   | 
z4 _1/4B2c4c8B2  | d8-d2d2 ^c2_7/8B2 A2G2  | 
w:  ke men dim   |   | 
A4 c2B2 A2G2 F2E4F2  | G8 d2e2 f2g4z2  | \
w:  ke men  |  dim   SAZ  | 
z4 d2g4g2 f2e4f2  | 
w:  Se nin  zen  | 
g4 _b2a2 g2=f2 e2d6  | d4 d2e4e2 a2e4d2  | \
w:  cîr_  |  *  i  zül fün  | 
d4 _7/8e2d2 c2c2 _1/4B2c4z2  | 
w:  dür   | 
z4 _1/4B2c4c8B2  | d8-d2d2 ^c2_7/8B2 A2G2  | \
w:  ke men dim   |   | 
A4 c2B2 A2G2 F2E4F2  | G8-G2|
w:  ke men  |  dim    | 


